X: 69
T: No_61_Song_Used_in_Treatment_of_Sick_(j).krn
N: Derived from No_61_Song_Used_in_Treatment_of_Sick_(j).krn
%%abc-version 2.0
%%abcx-abcm2ps-target-version 5.9.1 (29 Sep 2008)
%%abc-creator hum2abc beta
%%abcx-conversion-date 2019/03/15 08:36:49
%%humdrum-veritas 3338728085
%%humdrum-veritas-data 2500943064
%%linebreak <none>
%%barnumbers 0
L: 1/8
M: 2/4
K: Db clef=treble
[K:clef=treble][M:2/4]A4- ||  
[M:3/4]A6 | 
dA dc d3/A/ | 
dF FF FE ||  
[M:2/4]AF FA | 
FE DD | 
EE EE ||  
[M:3/4]D2DDD2 | 
A,2A,2A,2 | 
FD DE EE ||  
[M:2/4]D2EE ||  
[M:3/4]D6 | 
D6 |]  



